priv/static/svgs/icons_new/generic-idea.svg

<svg width="32" height="32" viewBox="0 0 32 32" fill="none" xmlns="http://www.w3.org/2000/svg">
<path d="M12.25 25.5H19.75M18.25 16.7307C18.25 17.9415 17.2426 18.923 16 18.923C14.7574 18.923 13.75 17.9415 13.75 16.7307M8.5 13.6455C8.5 9.30013 11.8579 6.5 16 6.5C20.1421 6.5 23.5 9.30013 23.5 13.6455C23.5 16.884 20.6962 19.4552 19.9374 21.6002C19.7532 22.1209 19.3023 22.5769 18.75 22.5769H13.25C12.6977 22.5769 12.2468 22.1209 12.0626 21.6002C11.3038 19.4552 8.5 16.884 8.5 13.6455Z" stroke="black" stroke-linecap="round"/>
</svg>

<svg width="32" height="32" viewBox="0 0 32 32" fill="none" xmlns="http://www.w3.org/2000/svg">
  <symbol id="item" viewBox="0 0 32 32" stroke-width="1" fill="none">
    <path d="M12.25 25.5h7.5m-1.5-8.77c0 1.212-1.007 2.193-2.25 2.193s-2.25-.981-2.25-2.192M8.5 13.645C8.5 9.3 11.858 6.5 16 6.5c4.142 0 7.5 2.8 7.5 7.146 0 3.238-2.804 5.81-3.563 7.954-.184.52-.635.977-1.187.977h-5.5c-.552 0-1.003-.456-1.187-.977-.76-2.145-3.563-4.716-3.563-7.955Z" stroke="currentColor" stroke-linecap="round"/>
  </symbol>
</svg>
